X:39
T:Mrs. Casey
N:page 23 on manuscript
M:6/8
L:1/8
K:F
A | F2 D D>ED | C2 C C>DC | D2 D D>ED | (B3 A2) A | F2 D D>ED | C2 C C>DC | D2 D D>ED | F3 A2 H|] C |
F2 G A2 B | c2 d c2 A | F2 G A2 B | (c3 c2 )B/c/ | d2 B c2 A | B2 G A2 G | F2 D D>ED | (B3 A2) +D.C.+|]

